src/assets/img/facebook.svg

<svg height="50" viewBox="0 0 50 50" width="50" xmlns="http://www.w3.org/2000/svg"><path d="m31.4921875 16.65-2.353125.0015625c-1.8453125 0-2.203125.8765625-2.203125 2.1625v2.8375h4.4015625l-.5734375 4.4453125h-3.828125v11.403125h-4.5890625v-11.403125h-3.8375v-4.4453125h3.8375v-3.2765625c0-3.8046875 2.3234375-5.875 5.715625-5.875 1.625 0 3.021875.1203125 3.4296875.175zm-6.4921875-16.65c-13.80625 0-25 11.1921875-25 25 0 13.80625 11.19375 25 25 25 13.8078125 0 25-11.19375 25-25 0-13.8078125-11.1921875-25-25-25z" fill="#fff" fill-rule="evenodd"/></svg>

<?xml version="1.0" encoding="UTF-8"?>
<svg width="50px" height="50px" viewBox="0 0 50 50" version="1.1" xmlns="http://www.w3.org/2000/svg" xmlns:xlink="http://www.w3.org/1999/xlink">
    <!-- Generator: Sketch 47.1 (45422) - http://www.bohemiancoding.com/sketch -->
    <title>facebook</title>
    <desc>Created with Sketch.</desc>
    <defs></defs>
    <g id="desktop" stroke="none" stroke-width="1" fill="none" fill-rule="evenodd">
        <g id="home" transform="translate(-550.000000, -2691.000000)" fill="#FFFFFF">
            <g id="Group-15" transform="translate(0.000000, 2611.000000)">
                <g id="facebook" transform="translate(550.000000, 80.000000)">
                    <path d="M31.4921875,16.65 L29.1390625,16.6515625 C27.29375,16.6515625 26.9359375,17.528125 26.9359375,18.8140625 L26.9359375,21.6515625 L31.3375,21.6515625 L30.7640625,26.096875 L26.9359375,26.096875 L26.9359375,37.5 L22.346875,37.5 L22.346875,26.096875 L18.509375,26.096875 L18.509375,21.6515625 L22.346875,21.6515625 L22.346875,18.375 C22.346875,14.5703125 24.6703125,12.5 28.0625,12.5 C29.6875,12.5 31.084375,12.6203125 31.4921875,12.675 L31.4921875,16.65 Z M25,0 C11.19375,0 0,11.1921875 0,25 C0,38.80625 11.19375,50 25,50 C38.8078125,50 50,38.80625 50,25 C50,11.1921875 38.8078125,0 25,0 L25,0 Z" id="Fill-183"></path>
                </g>
            </g>
        </g>
    </g>
</svg>
